X: 30283
T: DUKE OF REICHSTADT'S WALTZ
C:
%R: waltz
B: Elias Howe "The Musician's Companion" Part 3 1844 p.28 #3
S: http://imslp.org/wiki/The_Musician's_Companion_(Howe,_Elias)
S: https://archive.org/stream/firstthirdpartof03howe/#page/66/mode/1up
Z: 2016 John Chambers <jc:trillian.mit.edu>
N: The endings of strains 3,4 are confused; fixed by moving the final g in strain 2 to be the pickup of strain 3.
N: Bars 2,3 of strain 3 have the staccato dots misplaced; put them on the notes instead of the rest and bar line.
M: 3/4
L: 1/8
K: G
% - - - - - - - - - - - - - - - - - - - - - - - - -
g2 |\
f2z2e2 | d2z2^c2 | e2z2d2 | .B.B.B.B.B.B |\
c2z2d2 | .A.A.A.A.A.A | B2z2d2 | g2z2g2 |\
f2z2e2 | d2z2^c2 | e2z2d2 | .B.B.B.B.B.B |\
c2z2d2 | .A.A.A.A.A.A | g2fgdB | G2z2 :|
|: .f2 |\
.g2z2.a2 | .b2z2.g2 | .f2z2.g2 | .a.a.a.a.a.a |\
.e2z2.f2 | .g.g.g.g.g.g | .d2z2.e2 | .f.f.f.f.f.f |\
.g2z2.a2 | .^c'3 .b.a.g | .f2z2.g2 | .b3agf |\
e2z2f2 | a3gfe | d2(d^cde) | d2z2 :|
|: g2 |\
.f2z2.e2 | .d2z.c2 | .e2z2.d2 | .B.B.B.B.B.B |\
c2z2d2 | .A.A.A.A.A.A |[1 B2z2d2 | g2z2 :|[2 g2fgdB | G2z2 |]\
[K:=f][K:C]\
G2 |\
e2z2d2 | c2z2G2 | (A4G2) | (A4G2) |\
.e2z2.d2 | .c2z2G2 | F2D2G2 | C2z2 :|
% - - - - - - - - - - - - - - - - - - - - - - - - -
